src/images/linkedin.svg

<svg width="40" height="41" viewBox="0 0 40 41" fill="none" xmlns="http://www.w3.org/2000/svg">
<rect y="0.523926" width="40" height="40" rx="5" fill="#FFCC29"/>
<path d="M27.25 12.2739C27.9141 12.2739 28.5 12.8599 28.5 13.563V28.5239C28.5 29.2271 27.9141 29.7739 27.25 29.7739H12.2109C11.5469 29.7739 11 29.2271 11 28.5239V13.563C11 12.8599 11.5469 12.2739 12.2109 12.2739H27.25ZM16.2734 27.2739V18.9536H13.6953V27.2739H16.2734ZM14.9844 17.7817C15.8047 17.7817 16.4688 17.1177 16.4688 16.2974C16.4688 15.4771 15.8047 14.7739 14.9844 14.7739C14.125 14.7739 13.4609 15.4771 13.4609 16.2974C13.4609 17.1177 14.125 17.7817 14.9844 17.7817ZM26 27.2739V22.7036C26 20.4771 25.4922 18.7192 22.875 18.7192C21.625 18.7192 20.7656 19.4224 20.4141 20.0864H20.375V18.9536H17.9141V27.2739H20.4922V23.1724C20.4922 22.0786 20.6875 21.0239 22.0547 21.0239C23.3828 21.0239 23.3828 22.2739 23.3828 23.2114V27.2739H26Z" fill="#C10023"/>
</svg>

<svg xmlns="http://www.w3.org/2000/svg" width="40" height="41" fill="none"><rect width="40" height="40" y=".524" fill="#FFCC29" rx="5"/><path fill="#C10023" d="M27.25 12.274c.664 0 1.25.586 1.25 1.289v14.96c0 .704-.586 1.25-1.25 1.25H12.21c-.663 0-1.21-.546-1.21-1.25v-14.96c0-.703.547-1.29 1.21-1.29zm-10.977 15v-8.32h-2.578v8.32zm-1.289-9.492c.82 0 1.485-.664 1.485-1.485 0-.82-.664-1.523-1.485-1.523-.859 0-1.523.703-1.523 1.523s.664 1.485 1.523 1.485M26 27.274v-4.57c0-2.227-.508-3.985-3.125-3.985-1.25 0-2.11.703-2.46 1.367h-.04v-1.132h-2.46v8.32h2.577v-4.102c0-1.093.195-2.148 1.563-2.148 1.328 0 1.328 1.25 1.328 2.187v4.063z"/></svg>
